X: 1138
T: Sir Philip McHugh   #2
R: slipjig
%S: s:1 b:6
B: O'Neill's 1850 Music of Ireland #1138
Z: Stephen Foy (shf@access.digex.net)
%: abc 1.6
M: 9/8
K: G
"^A"|: D | G2c BGB c2A |[1,3 B2d cAG F2 :|[2,4 B2d cAF G2 \
"^B":: B | ABA AFD FED |[1,3 ABA AFD G2 :|[2,4 B2d cAF G2 :|
